client/public/assets/icons/standard/quotes.svg

<?xml version="1.0"?><svg xmlns="http://www.w3.org/2000/svg" width="100" height="100" viewBox="0 0 100 100"><path fill="#fff" d="m72 22h-21.9c-1.4-0.1-2.6 0.6-3.6 1.6l-26.8 26.9c-2.3 2.3-2.3 6.1 0 8.5l21.2 21.2c2.3 2.3 6.1 2.3 8.5 0l27.1-27.2c1-1 1.6-2.6 1.5-4v-21c0-3.3-2.7-6-6-6z m-21.6 44l-1.4 1.4c-0.8 0.8-2 0.8-2.8 0l-13.6-13.6c-0.8-0.8-0.8-2 0-2.8l1.4-1.4c0.8-0.8 2-0.8 2.8 0l13.6 13.6c0.8 0.8 0.8 2 0 2.8z m8-8l-1.4 1.4c-0.8 0.8-2 0.8-2.8 0l-13.6-13.6c-0.8-0.8-0.8-2 0-2.8l1.4-1.4c0.8-0.8 2-0.8 2.8 0l13.6 13.6c0.8 0.8 0.8 2 0 2.8z m5.6-17c-2.8 0-5-2.2-5-5s2.2-5 5-5 5 2.2 5 5-2.2 5-5 5z"></path></svg>

<?xml version="1.0" encoding="utf-8"?>
<!-- Generator: Adobe Illustrator 17.1.0, SVG Export Plug-In . SVG Version: 6.00 Build 0)  -->
<!DOCTYPE svg PUBLIC "-//W3C//DTD SVG 1.1//EN" "http://www.w3.org/Graphics/SVG/1.1/DTD/svg11.dtd">
<svg version="1.1" id="Layer_1" xmlns="http://www.w3.org/2000/svg" xmlns:xlink="http://www.w3.org/1999/xlink" x="0px" y="0px" width="100" height="100"
	 viewBox="0 0 100 100" style="enable-background:new 0 0 100 100;" xml:space="preserve">

<g>
	<path fill="#FFFFFF" d="M72,22H50.1c-1.4-0.1-2.6,0.6-3.6,1.6L19.7,50.5c-2.3,2.3-2.3,6.1,0,8.5l21.2,21.2c2.3,2.3,6.1,2.3,8.5,0
		L76.5,53c1-1,1.6-2.6,1.5-4V28C78,24.7,75.3,22,72,22z M50.4,66L49,67.4c-0.8,0.8-2,0.8-2.8,0L32.6,53.8c-0.8-0.8-0.8-2,0-2.8
		l1.4-1.4c0.8-0.8,2-0.8,2.8,0l13.6,13.6C51.2,64,51.2,65.2,50.4,66z M58.4,58L57,59.4c-0.8,0.8-2,0.8-2.8,0L40.6,45.8
		c-0.8-0.8-0.8-2,0-2.8l1.4-1.4c0.8-0.8,2-0.8,2.8,0l13.6,13.6C59.2,56,59.2,57.2,58.4,58z M64,41c-2.8,0-5-2.2-5-5s2.2-5,5-5
		c2.8,0,5,2.2,5,5S66.8,41,64,41z"/>
</g>
</svg>
